X: 96
T: POLKA: Pop No. 1
C: C: Damien Mullane; S: Damien Mullane
C: Set Leaders: Olya, Vova
Z: Oleg Naumov arr.; jeff_lindqvist at The Session
N: https://thesession.org/members/26966/sets/92364
R: Polka
M: 2/4
L: 1/8
Q: 1/4=140
K: Gmaj
"G"gd dg|"C"ef/e/ dc|"G"BG GB|"D"Ad fa|
"G"gd dg|"C"ef/e/ dc|"G"Bd "C"ce|"(G)"dg "D"fa|
"G"gd dg|"C"ef/e/ dc|"G"BG GB|"D"Ad fa|
"Em"gd dg|"C"ef/e/ dc|"G"BG "(C)"GB|"D (Am)"A/B/A/G/ "D/B"FA||
|:"Em"GB/G/ FG|"C"E2- EG|"G"DG GB|"D"A/B/A/G/ FA|
"Em"GB/G/ "(D)"FG|"C"E2- EG|"G"DG Bd|1 "D"A2 Ad:|2 "D"Ad fa||

